X:1
T:Minster, 77.77 D
T:Minster, 77.77 D
T:Robert Prescott Stewart, 1889
T:Public Domain Courtesy of the Cyber Hymnal™
C:Robert Prescott Stewart, 1889
Z:Public Domain
Z:Courtesy of the Cyber Hymnal™
%%score ( 1 2 ) ( 3 4 )
L:1/8
Q:1/4=115
M:none
K:C
V:1 treble 
V:2 treble 
V:3 bass 
V:4 bass 
V:1
 [CE]2 | [CE]3 [CE] [CE]2 [CE]2 | [CF]2 [CF]4 [CE]2 | [A,D]2 [^CE]2 [DF]2 [EA]2 | %4
 G3 z F [CE]2 [EG]2 | [EG]3 [EG] [EG]2 [EG]2 | [EA]2 [EA]4 [EG]2 | [^D^F]2 [EG]2 [FA]2 [Fc]2 | %8
 B3 z A [EG]2 [EG]2 | [Fe]3 [Fd] [Fd]2 [DG]2 | [Gd]4 [Gc]2 [Ec]2 | [Ff]2 [Ge]2 [Ad]2 [Gc]2 | %12
 (B2 A2) [DG]2 [DF]2 | [CE]3 [CE] [B,G]2 [B,G]2 | [Cc]4 [CA]2 [CA]2 | [CG]3 [Ec] [Af]2 [Ge]2 | %16
 [Fd]4 [Ec]2 |] %17
V:2
 x2 | x8 | x8 | x8 | D2 B,2 x5 | x8 | x8 | x8 | ^F2 ^D2 x5 | x8 | x8 | x8 | F4 x4 | x8 | x8 | x8 | %16
 x6 |] %17
V:3
 [C,G,]2 | [C,G,]3 [C,G,] [C,G,]2 [C,G,]2 | [C,A,]2 [C,A,]4 [C,G,]2 | %3
 [F,A,]2 [E,G,]2 [D,F,]2 [C,E,]2 | G,4 [C,G,]2 [C,C]2 x | [E,B,]3 [E,B,] [E,B,]2 [E,B,]2 | %6
 [CE]2 [CE]4 B,2 | [A,C]2 [G,B,]2 [^F,A,]2 [E,A,]2 | [^D,^F,]2 [B,,B,]2 [E,B,]2 [E,B,]2 x | %9
 [D,B,]3 [G,B,] [G,B,]2 [F,B,]2 | [F,B,]4 [E,C]2 [B,_C]2 | [A,C]2 [G,B,]2 [F,A,]2 [E,C]2 | %12
 ([D,F,]2 [C,A,]2) [B,,D]2 [B,,G,]2 | [C,G,]3 [C,G,] [D,G,]2 [D,G,]2 | [E,G,]4 [F,C]2 [^F,D]2 | %15
 [G,E]3 [G,C] [G,C]2 [G,C]2 | [G,,B,]4 [C,C]2 |] %17
V:4
 x2 | x8 | x8 | x8 | B,,2 G,,2 x5 | x8 | x6 B,2 | x8 | x9 | x8 | x8 | x8 | x8 | x8 | x8 | x8 | %16
 x6 |] %17

